svgs/sharp-solid/indian-rupee-sign.svg

<svg xmlns="http://www.w3.org/2000/svg" viewBox="0 0 320 512"><!--! Font Awesome Pro 6.6.0 by @fontawesome - https://fontawesome.com License - https://fontawesome.com/license (Commercial License) Copyright 2024 Fonticons, Inc. --><path d="M0 32l32 0 32 0 32 0 16 0 176 0 32 0 0 64-32 0-56.2 0c9.6 14.4 16.7 30.6 20.7 48l35.6 0 32 0 0 64-32 0-35.6 0c-13.7 60.5-65.6 106.6-129 111.6L257.2 405l27 17.2-34.5 53.9-27-17.2L14.8 326 0 316.6l0-17.5L0 288l0-32 32 0 80 0c32.8 0 61-19.7 73.3-48L32 208 0 208l0-64 32 0 153.3 0C173 115.7 144.8 96 112 96L96 96 64 96 32 96 0 96 0 32z"/></svg>

<svg xmlns="http://www.w3.org/2000/svg" viewBox="0 0 320 512"><!--! Font Awesome Pro 6.4.0 by @fontawesome - https://fontawesome.com License - https://fontawesome.com/license (Commercial License) Copyright 2023 Fonticons, Inc. --><path d="M0 32H32 64 96h16H288h32V96H288 231.8c9.6 14.4 16.7 30.6 20.7 48H288h32v64H288 252.4c-13.7 60.5-65.6 106.6-129 111.6L257.2 405l27 17.2-34.5 53.9-27-17.2L14.8 326 0 316.6l0-17.5L0 288l0-32H32h80c32.8 0 61-19.7 73.3-48H32 0V144H32 185.3C173 115.7 144.8 96 112 96H96 64 32 0V32z"/></svg>
